X: 258
T: Inisheer
C:Thomas Walsh
R: waltz
M: 3/4
L: 1/8
K:Gmaj
D2|"G"B2 BA Bd | B2 BA Bd | G2 GB AB |"D" D2-D BAG |
"G"B2 BA Bd | B2 BA Bd |"Cmaj7" E3 B AB |1"G" G4 :|2G3 ABd|
"C"e2 ef ed |"G(Em)" B2 BA Bd |"G" gf ed Bd |"C" e4 d2 |
"C"e2 ef ed |"G(Em)" B2 BA Bd |"G" G3 B AB |1 G3 ABd:|2 G4||


